build/images/g26.svg

<svg width="138" height="138" viewBox="0 0 138 138" fill="none" xmlns="http://www.w3.org/2000/svg">
<circle cx="69" cy="69" r="69" fill="#76BD5E"/>
<path d="M77.2033 58.4426C74.7096 58.4426 72.29 58.9328 70.0041 59.8833C69.2471 60.1952 68.8908 61.0715 69.2025 61.829C69.5143 62.5865 70.39 62.9429 71.1471 62.631C73.0619 61.829 75.1104 61.428 77.2033 61.428C85.8721 61.428 92.9377 68.4977 92.9377 77.1716C92.9377 85.8454 85.8721 92.9152 77.2033 92.9152C68.5346 92.9152 61.4689 85.8454 61.4689 77.1716C61.4689 75.0774 61.8697 73.0277 62.6713 71.1118C62.983 70.3543 62.6268 69.478 61.8697 69.1661C61.1127 68.8542 60.2369 69.2107 59.9252 69.9681C58.9752 72.2554 58.4854 74.6764 58.4854 77.1716C58.4854 87.494 66.8721 95.8857 77.1885 95.8857C87.5049 95.8857 95.8916 87.494 95.8916 77.1716C95.8916 66.8491 87.5197 58.4426 77.2033 58.4426Z" fill="white"/>
<path d="M77.2031 89.3358C83.9125 89.3358 89.375 83.8701 89.375 77.1568C89.375 70.4435 83.9125 64.9778 77.2031 64.9778C70.4938 64.9778 65.0312 70.4435 65.0312 77.1568C65.0312 83.8701 70.4938 89.3358 77.2031 89.3358ZM77.2031 67.9483C82.2797 67.9483 86.4062 72.0773 86.4062 77.1568C86.4062 82.2363 82.2797 86.3653 77.2031 86.3653C72.1266 86.3653 68 82.2363 68 77.1568C68 72.0773 72.1266 67.9483 77.2031 67.9483Z" fill="white"/>
<path d="M98.4742 51.3136H93.9617L88.7812 42.5358C88.5141 42.0902 88.0242 41.808 87.5047 41.808H66.9164C66.3969 41.808 65.907 42.0902 65.6398 42.5358L60.4594 51.3136H51.9688V49.5313C51.9688 46.5756 49.5789 44.1844 46.625 44.1844C43.6711 44.1844 41.2812 46.5756 41.2812 49.5313V51.3136H37.5258C33.3695 51.3136 30 54.6999 30 58.8437V95.4699C30 99.6286 33.3844 103 37.5258 103H98.4742C102.63 103 106 99.6137 106 95.4699V58.8437C106 54.6851 102.616 51.3136 98.4742 51.3136ZM67.7625 44.7785H86.6586L90.518 51.3136H63.9031L67.7625 44.7785ZM44.25 49.5313C44.25 48.2242 45.3188 47.1549 46.625 47.1549C47.9312 47.1549 49 48.2242 49 49.5313V51.3136H44.25V49.5313ZM103.031 95.4699C103.031 97.98 100.983 100.03 98.4742 100.03H37.5258C35.0172 100.03 32.9688 97.98 32.9688 95.4699V58.8437C32.9688 56.3337 35.0172 54.284 37.5258 54.284H98.4742C100.983 54.284 103.031 56.3337 103.031 58.8437V95.4699Z" fill="white"/>
<path d="M77.2031 74.2605C78.8063 74.2605 80.0977 75.5527 80.0977 77.1568C80.0977 77.9736 80.7656 78.642 81.582 78.642C82.3984 78.642 83.0664 77.9736 83.0664 77.1568C83.0664 73.9189 80.4391 71.29 77.2031 71.29C76.3867 71.29 75.7188 71.9584 75.7188 72.7753C75.7188 73.5922 76.3867 74.2605 77.2031 74.2605Z" fill="white"/>
<path d="M77.2031 37.9017C78.0195 37.9017 78.6875 37.2333 78.6875 36.4165V28.4852C78.6875 27.6684 78.0195 27 77.2031 27C76.3867 27 75.7188 27.6684 75.7188 28.4852V36.4165C75.7188 37.2333 76.3867 37.9017 77.2031 37.9017Z" fill="white"/>
<path d="M84.2689 37.9017C84.6548 37.9017 85.0259 37.7531 85.3228 37.4709L90.7705 32.0201C91.3494 31.4408 91.3494 30.5051 90.7705 29.9259C90.1915 29.3466 89.2564 29.3466 88.6775 29.9259L83.2298 35.3767C82.6509 35.956 82.6509 36.8917 83.2298 37.4709C83.5119 37.7531 83.883 37.9017 84.2689 37.9017Z" fill="white"/>
<path d="M69.0984 37.456C69.3953 37.7531 69.7664 37.8868 70.1523 37.8868C70.5383 37.8868 70.9094 37.7382 71.2063 37.456C71.7852 36.8768 71.7852 35.9411 71.2063 35.3618L65.7586 29.911C65.1797 29.3318 64.2445 29.3318 63.6656 29.911C63.0867 30.4902 63.0867 31.4259 63.6656 32.0052L69.0984 37.456Z" fill="white"/>
<path d="M50.4844 63.4926H42.7656C41.9492 63.4926 41.2812 64.1609 41.2812 64.9778C41.2812 65.7947 41.9492 66.463 42.7656 66.463H50.4844C51.3008 66.463 51.9688 65.7947 51.9688 64.9778C51.9688 64.1609 51.3008 63.4926 50.4844 63.4926Z" fill="white"/>
<path d="M65.0312 66.463C65.4172 66.463 65.8031 66.2997 66.0852 66.0323C66.3672 65.765 66.5156 65.3788 66.5156 64.9778C66.5156 64.5916 66.3523 64.2055 66.0852 63.9233C65.8031 63.6411 65.432 63.4926 65.0312 63.4926C64.6305 63.4926 64.2594 63.6559 63.9773 63.9233C63.6953 64.2055 63.5469 64.5768 63.5469 64.9778C63.5469 65.364 63.7102 65.7501 63.9773 66.0323C64.2594 66.2997 64.6305 66.463 65.0312 66.463Z" fill="white"/>
</svg>

<svg width="138" height="138" fill="none" xmlns="http://www.w3.org/2000/svg"><circle cx="69" cy="69" r="69" fill="#76BD5E"/><path d="M77.203 58.443c-2.493 0-4.913.49-7.199 1.44a1.492 1.492 0 00-.802 1.946 1.49 1.49 0 001.945.802 15.627 15.627 0 016.056-1.203c8.67 0 15.735 7.07 15.735 15.744 0 8.673-7.066 15.743-15.735 15.743-8.668 0-15.734-7.07-15.734-15.743 0-2.095.4-4.144 1.202-6.06a1.492 1.492 0 00-.801-1.946 1.49 1.49 0 00-1.945.802 18.682 18.682 0 00-1.44 7.204c0 10.322 8.387 18.714 18.704 18.714 10.316 0 18.703-8.392 18.703-18.714 0-10.323-8.372-18.73-18.689-18.73z" fill="#fff"/><path d="M77.203 89.336c6.71 0 12.172-5.466 12.172-12.18 0-6.713-5.463-12.178-12.172-12.178-6.71 0-12.172 5.466-12.172 12.179s5.463 12.179 12.172 12.179zm0-21.388c5.077 0 9.203 4.13 9.203 9.209 0 5.08-4.126 9.208-9.203 9.208-5.076 0-9.203-4.129-9.203-9.208 0-5.08 4.127-9.209 9.203-9.209z" fill="#fff"/><path d="M98.474 51.314h-4.512l-5.18-8.778a1.501 1.501 0 00-1.277-.728H66.916a1.5 1.5 0 00-1.276.728l-5.18 8.778h-8.491V49.53a5.342 5.342 0 00-5.344-5.347 5.342 5.342 0 00-5.344 5.347v1.783h-3.755c-4.157 0-7.526 3.386-7.526 7.53V95.47c0 4.159 3.384 7.53 7.526 7.53h60.948c4.156 0 7.526-3.386 7.526-7.53V58.844c0-4.159-3.384-7.53-7.526-7.53zm-30.712-6.535H86.66l3.859 6.535H63.903l3.86-6.535zM44.25 49.53a2.383 2.383 0 012.375-2.376A2.383 2.383 0 0149 49.53v1.783h-4.75V49.53zm58.781 45.939c0 2.51-2.048 4.56-4.557 4.56H37.526a4.57 4.57 0 01-4.557-4.56V58.844c0-2.51 2.048-4.56 4.557-4.56h60.948a4.569 4.569 0 014.557 4.56V95.47z" fill="#fff"/><path d="M77.203 74.26a2.89 2.89 0 012.895 2.897 1.49 1.49 0 001.484 1.485 1.49 1.49 0 001.484-1.485 5.868 5.868 0 00-5.863-5.867 1.49 1.49 0 00-1.484 1.485 1.49 1.49 0 001.484 1.485zm0-36.358a1.49 1.49 0 001.484-1.486v-7.93A1.49 1.49 0 0077.204 27a1.49 1.49 0 00-1.484 1.485v7.931a1.49 1.49 0 001.484 1.486zm7.066 0a1.52 1.52 0 001.054-.431l5.448-5.45a1.48 1.48 0 10-2.094-2.095l-5.447 5.45a1.48 1.48 0 001.039 2.526zm-15.171-.446c.297.297.668.43 1.054.43a1.52 1.52 0 001.054-.43 1.48 1.48 0 000-2.094L65.76 29.91a1.48 1.48 0 10-2.093 2.094l5.432 5.451zM50.484 63.493h-7.718a1.49 1.49 0 00-1.485 1.485 1.49 1.49 0 001.485 1.485h7.718a1.49 1.49 0 001.485-1.485 1.49 1.49 0 00-1.485-1.485zm14.547 2.97a1.56 1.56 0 001.054-.43c.282-.268.43-.654.43-1.055 0-.386-.163-.772-.43-1.055a1.469 1.469 0 00-1.054-.43c-.4 0-.772.163-1.054.43a1.47 1.47 0 00-.43 1.055c0 .386.163.772.43 1.054.282.268.654.431 1.054.431z" fill="#fff"/></svg>
